svg/u1f97e.svg

<svg viewBox="0 0 128 128" xmlns="http://www.w3.org/2000/svg">
  <defs/>
  <path d="M12.78,29.74 L12.78,20.55 C13.76,19.41 16.6,17.07 23.61,16.39 C25.47,16.21 27.27,16.12 28.96,16.12 C35.64,16.12 43.81,16.75 47.11,19.47 C48.9,20.95 50.36,22.11 50.91,22.99 L35.49,35.12 L12.78,29.74 Z" fill="#263238"/>
  <path d="M118.95,94.9 C118.95,94.9 115.25,81.45 109.01,79.58 C104.34,78.18 99.44,77.97 94.61,77.64 C91.36,77.42 88.31,76.55 85.86,74.33 C83.24,71.96 71.07,57.09 65.97,49.66 C64.04,46.85 65.72,42.17 66.6,38.77 C67.48,35.36 68.6,31.92 68.37,28.35 C68.11,24.48 66.17,21.88 60.07,21.09 C55.37,20.48 53.04,20.71 53.04,20.71 C49.5,16.35 39.22,13.69 29.87,14.23 C23.7,14.59 15.23,15.42 10.41,19.75 C7.33,22.52 6.22,28.71 10.14,32.92 C6.88,35 6.5,38.99 7.4,41.89 C8.29,44.76 10.31,45.91 10.41,46.75 C10.51,47.56 10.85,55.56 11.23,58.71 C11.66,62.3 9.84,65.72 8.67,69.14 C7.81,71.64 7.22,76.27 7.45,79.76 C7.52,80.76 7.42,81.6 7.64,82.34 C7.86,83.07 8.39,83.71 8.78,84.03 C16.69,90.48 33.44,94.64 36.98,96.73 C40.52,98.81 58,110.88 69.24,112.76 C80.48,114.63 94.94,114.23 107.84,106.11 C120.74,97.96 118.95,94.9 118.95,94.9 Z M25.04,18.62 C40.01,17.64 45.72,20.66 47.58,22.61 C47.58,22.61 42.29,23.68 40.51,27.1 C39.73,28.59 38.76,30.28 38.82,31.97 C35.31,28.91 31.62,29.55 27.3,29.27 C21.47,28.89 14.82,27.11 14.99,23.55 C15.17,19.61 23,18.75 25.04,18.62 Z" fill="#784D30"/>
  <path d="M93.94,96.39 C94.83,95.78 95.7,95.08 96.21,94.14 C96.72,93.2 96.83,91.95 96.2,91.08 C95.48,90.08 94.04,89.84 92.84,90.15 C91.64,90.46 90.61,91.19 89.54,91.81 C88.15,92.61 84.71,93.93 81.59,94.79 C78.5,95.65 76.61,97.39 77.11,99.27 C77.96,102.48 83.39,101 85.19,100.52 C88.19,99.72 91.36,98.16 93.94,96.39 Z" fill="#A06841"/>
  <path d="M23.66,65.37 C25.29,67.74 25,71.39 22.73,73.15 C21.53,74.08 19.99,74.42 18.7,75.21 C17.93,75.68 15.99,77.72 13.89,77.19 C12.7,76.89 12.19,75.45 11.97,74.25 C11.3,70.62 12.44,66.66 15.11,64 C17.54,61.57 21.97,62.91 23.66,65.37 Z" fill="#A06841"/>
  <path d="M123.63,100.16 C124.38,97.9 123.89,95.39 123.17,93.18 C122.62,92.25 121.11,92.01 120.15,91.63 C119.88,91.54 117.62,91.11 117.56,90.93 C117.86,91.91 118.36,92.86 118.47,93.89 C118.54,95.32 114.34,100.88 105.69,104.88 C83.74,115.02 70.12,110.83 66.66,110.25 C55.75,108.26 44.67,100.87 37.23,96.25 C29.37,92.66 17.62,89.93 10.17,84.42 C9.24,83.76 8.21,83.12 7.78,82 C7.78,82 7.68,81.75 7.64,81.49 C7.57,80.98 7.44,79.74 7.44,79.74 C5.88,80.7 4.05,82.14 4.07,84.17 C4.07,84.17 4,91.15 4,91.15 C3.99,91.85 4.28,92.52 4.8,92.99 C5.92,94.02 7.9,95.27 9.35,96.14 C10.21,96.65 11.16,96.46 11.37,95.42 C11.45,95.03 11.55,94.64 11.67,94.25 C12.08,92.76 13.07,93.73 14.12,94.16 C14.48,94.33 14.93,94.48 14.92,94.94 C14.92,94.94 14.92,98.16 14.92,98.16 C14.92,99.04 15.44,99.82 16.26,100.15 C17.55,100.5 19.89,102.25 21.2,100.94 C21.63,99.98 21.47,98.67 22.18,97.86 C22.71,97.54 24.08,98.25 24.59,98.44 C25.38,98.74 24.77,101.6 24.74,101.97 C24.67,102.86 25.13,103.59 25.99,103.92 C25.99,103.92 28.73,104.96 28.73,104.96 C29.31,105.18 30.48,105.18 30.91,104.63 C31.44,103.76 31.27,102.59 31.77,101.71 C32.38,100.87 33.88,102.02 34.53,102.35 C35.71,102.92 37.07,103.75 38.17,104.48 C41.41,106.56 43.2,107.44 48.11,110.05 C48.31,110.16 48.44,110.36 48.45,110.58 L48.62,113.77 C48.82,115.9 51.62,116.3 53.14,117.31 C53.72,117.6 54.83,117.72 55.25,117.1 C55.62,116.41 55.65,115.57 56.04,114.87 C56.43,114.04 57.38,114.27 58.07,114.53 C60.9,115.25 59.87,116.9 59.92,119.08 C59.97,119.89 60.75,120.62 61.51,120.85 C62.92,121.27 64.67,121.69 65.59,121.9 C67.83,122.41 67.69,120.02 67.83,118.7 C67.88,118.12 67.97,117.1 68.82,117.2 C69.59,117.29 70.36,117.37 71.14,117.44 C71.46,117.47 71.71,117.72 71.73,118.04 L71.88,120.89 C71.94,122.01 72.86,122.91 73.97,122.94 C75.52,122.98 77.8,123 79.57,122.98 C80.48,123 81.32,122.24 81.24,121.29 C81.3,119.73 80.31,118.04 82.37,117.5 C83.13,117.26 85.28,116.99 86.14,116.95 C86.89,116.92 86.99,117.49 87.1,118.61 C87.18,119.37 87.17,120.26 87.73,120.77 C88.13,121.14 88.74,121.16 89.28,121.08 C102.12,119.24 117.5,111.68 123.63,100.16 Z" fill="#E2A610"/>
  <path d="M45.471,49.617 Q46.464,51.05 56.882,50.815 Q66.481,50.598 69.2,51.871 Q70.589,52.521 69.939,53.91 Q69.614,54.605 69.104,54.789 Q68.594,54.974 67.9,54.649 Q65.832,53.681 56.951,53.881 Q44.882,54.154 42.949,51.363 Q42.076,50.103 43.337,49.229 Q44.597,48.356 45.471,49.617 Z" fill="#C62828"/>
  <path d="M50.1,59.865 Q50.562,60.566 60.358,59.04 Q70.848,57.405 73.918,58.252 Q74.657,58.455 74.925,58.927 Q75.192,59.398 74.988,60.138 Q74.581,61.616 73.102,61.208 Q70.669,60.538 60.83,62.071 Q49.087,63.9 47.54,61.555 Q46.695,60.274 47.975,59.43 Q49.256,58.585 50.1,59.865 Z" fill="#C62828"/>
  <path d="M56.231,68.377 Q56.747,68.975 64.224,66.875 Q74.756,63.917 79.047,64.733 Q80.553,65.02 80.267,66.527 Q79.98,68.033 78.473,67.747 Q74.891,67.065 65.053,69.828 Q55.7,72.455 53.909,70.383 Q53.408,69.802 53.448,69.262 Q53.487,68.721 54.067,68.219 Q55.228,67.217 56.231,68.377 Z" fill="#C62828"/>
  <path d="M63.668,75.788 Q63.864,76.161 69.91,74.319 Q81.219,70.873 85.87,72.848 Q86.962,73.313 87.463,73.828 Q88.22,74.606 88.002,75.573 Q87.795,76.492 86.793,76.947 Q84.913,77.798 80.696,80.291 Q76.108,83.003 74.096,83.85 Q70.127,85.519 68.091,84.069 L69.869,81.571 Q71.065,82.421 79.136,77.65 Q81.571,76.21 83.28,75.288 Q79.34,74.652 70.804,77.253 Q66.873,78.451 65.35,78.681 Q61.987,79.188 60.952,77.212 Z" fill="#C62828"/>
  <path d="M65.79,82.119 Q66.426,73.334 77.846,65.001 Q79.085,64.097 79.989,65.336 Q80.893,66.575 79.654,67.479 Q69.383,74.973 68.85,82.341 Q68.739,83.87 67.209,83.76 Q65.68,83.649 65.79,82.119 Z" fill="#F44336"/>
  <path d="M58.756,75.54 Q58.756,71.131 64.684,64.964 Q69.439,60.017 72.835,58.353 Q73.524,58.015 74.037,58.191 Q74.55,58.367 74.887,59.055 Q75.225,59.744 75.049,60.257 Q74.873,60.77 74.185,61.107 Q71.275,62.533 66.896,67.089 Q61.824,72.366 61.824,75.54 Q61.824,77.074 60.29,77.074 Q58.756,77.074 58.756,75.54 Z" fill="#F44336"/>
  <path d="M51.578,67.666 Q54.654,59.2 67.796,51.909 Q69.137,51.165 69.881,52.506 Q70.253,53.177 70.104,53.698 Q69.955,54.219 69.284,54.591 Q57.145,61.325 54.462,68.714 Q53.938,70.155 52.496,69.632 Q51.776,69.37 51.546,68.878 Q51.317,68.387 51.578,67.666 Z" fill="#F44336"/>
  <path d="M46.433,57.68 Q51.47,50.111 64.672,45.88 Q65.402,45.645 65.884,45.894 Q66.366,46.142 66.6,46.872 Q67.069,48.332 65.608,48.8 Q53.429,52.705 48.987,59.38 Q48.137,60.656 46.86,59.807 Q45.584,58.957 46.433,57.68 Z" fill="#F44336"/>
  <path d="M43.322,46.883 Q50.755,38.493 65.851,40.287 Q66.612,40.378 66.948,40.804 Q67.283,41.23 67.193,41.991 Q67.012,43.514 65.489,43.333 Q51.986,41.728 45.618,48.917 Q44.601,50.065 43.453,49.048 Q42.305,48.031 43.322,46.883 Z" fill="#F44336"/>
  <path d="M39.54,34.97 C40.58,39.35 40.58,44.12 40.4,48.55 C45.24,44.39 45.45,37.41 45.26,31.47 C45.15,30.26 45.37,28.96 46.96,27.94 C52.12,24.61 57.65,23.3 63.47,23.68 C65.8,23.84 67.47,24.91 67.47,24.91 C66.32,22.66 63.97,21 59.78,20.65 C54.19,20.19 47.64,20.7 42.85,23.88 C38.84,26.56 37.59,30.66 39.54,34.97 Z" fill="#A06841"/>
  <path d="M44.21,50.49 L47.42,51.37 C47.95,51.51 48.43,51.03 48.29,50.51 L47.1,46.05 C46.96,45.52 46.3,45.35 45.91,45.74 L43.55,48.14 L43.55,48.14 C43.18,46.81 41.81,46.03 40.48,46.4 L39.49,46.67 C38.35,46.98 37.68,48.17 37.99,49.31 L38.83,52.34 C39.14,53.48 40.33,54.15 41.47,53.84 L42.46,53.57 C43.8,53.19 44.58,51.82 44.21,50.49 L44.21,50.49 Z" fill="#78A3AC"/>
  <path d="M63.7,86.61 L66.24,88.46 C67.2,89.16 68.54,88.95 69.24,87.99 L69.85,87.16 C70.66,86.05 70.42,84.48 69.3,83.67 L72.36,82.36 C72.86,82.15 72.94,81.47 72.5,81.14 L68.79,78.39 C68.35,78.06 67.72,78.34 67.67,78.88 L67.32,82.23 L67.32,82.23 C66.21,81.42 64.64,81.66 63.83,82.78 L63.22,83.61 C62.53,84.57 62.74,85.91 63.7,86.61 Z" fill="#78A3AC"/>
  <path d="M55.98,79.25 L58.18,81.5 C59.01,82.35 60.37,82.37 61.22,81.54 L61.96,80.82 C62.95,79.86 62.97,78.28 62,77.29 L65.24,76.51 C65.77,76.38 65.96,75.73 65.58,75.33 L62.39,72 C62.01,71.6 61.35,71.77 61.2,72.3 L60.3,75.54 L60.3,75.54 C59.34,74.55 57.76,74.53 56.77,75.5 L56.03,76.22 C55.17,77.04 55.16,78.4 55.98,79.25 Z" fill="#78A3AC"/>
  <path d="M48.8,70.21 L50.55,72.83 C51.21,73.82 52.54,74.08 53.53,73.42 L54.39,72.85 C55.54,72.08 55.84,70.53 55.08,69.39 L58.4,69.21 C58.94,69.18 59.25,68.57 58.95,68.12 L56.42,64.26 C56.12,63.8 55.43,63.84 55.19,64.34 L53.71,67.36 L53.71,67.36 C52.94,66.21 51.39,65.91 50.25,66.67 L49.39,67.24 C48.41,67.89 48.14,69.23 48.8,70.21 Z" fill="#78A3AC"/>
  <path d="M42.5,60.81 L43.94,63.61 C44.48,64.66 45.78,65.08 46.83,64.54 L47.75,64.07 C48.98,63.44 49.46,61.94 48.83,60.71 L52.15,60.91 C52.69,60.94 53.07,60.37 52.82,59.89 L50.75,55.77 C50.5,55.28 49.82,55.24 49.52,55.71 L47.7,58.54 L47.7,58.54 C47.07,57.31 45.57,56.83 44.34,57.46 L43.42,57.93 C42.37,58.46 41.96,59.76 42.5,60.81 Z" fill="#78A3AC"/>
  <path d="M28.51,41.23 C20.75,41.23 11.07,38.55 9.6,35.12 C8.95,33.59 10.15,32.88 10.15,32.88 C14.33,36.32 21.19,38.25 29.02,38.16 C29.86,38.15 30.56,38.79 30.59,39.62 L30.59,39.62 C30.63,40.49 29.94,41.21 29.07,41.22 C28.88,41.22 28.69,41.23 28.51,41.23 Z" fill="#4E342E"/>
  <path d="M28.14,53.46 C21.34,53.46 15.16,52.01 10.57,49.41 C10.57,49.41 10.76,47.38 10.11,46.67 C9.16,45.62 8.5,44.06 8.5,44.06 C12.5,48.11 19.85,50.44 28.33,50.39 C29.17,50.39 29.86,51.03 29.89,51.86 L29.89,51.86 C29.92,52.72 29.24,53.45 28.39,53.45 C28.3,53.46 28.22,53.46 28.14,53.46 Z" fill="#4E342E"/>
  <path d="M23.87,18.73 C22.19,18.86 20.29,19.28 18.71,19.87 C17.31,20.39 15.65,21.2 15.19,22.61 C14.64,24.31 15.64,25.63 16.82,26.53 C18.48,27.95 22.68,28.07 21.96,30.77 C20.94,34.58 12.87,32.33 10.93,30.46 C4.92,25.1 9.43,18.72 15.78,16.61 C18.81,15.6 22.19,14.83 24.95,14.88 C25.62,14.89 27.82,15.09 27.62,16.79 C27.45,18.27 26.05,18.56 23.87,18.73 Z" fill="#A06841"/>
  <path d="M12.43,39.42 C13.95,40.27 17.3,40.7 17.5,42.43 C17.81,45.04 13.24,44.85 11.48,43.96 C10.14,43.49 8.61,42.24 8.22,40.43 C7.75,38.29 9.16,37.59 12.43,39.42 Z" fill="#A06841"/>
</svg>

<svg viewBox="0 0 128 128" xmlns="http://www.w3.org/2000/svg">
  <g>
    <g>
      <path d="M12.78,29.74v-9.19c0.98-1.14,3.82-3.48,10.83-4.16c1.86-0.18,3.66-0.27,5.35-0.27 c6.68,0,14.85,0.63,18.15,3.35c1.79,1.48,3.25,2.64,3.8,3.52L35.49,35.12L12.78,29.74z" fill="#263238"/>
      <path d="M118.95,94.9c0,0-3.7-13.45-9.94-15.32c-4.67-1.4-9.57-1.61-14.4-1.94 c-3.25-0.22-6.3-1.09-8.75-3.31c-2.62-2.37-14.79-17.24-19.89-24.67c-1.93-2.81-0.25-7.49,0.63-10.89c0.88-3.41,2-6.85,1.77-10.42 c-0.26-3.87-2.2-6.47-8.3-7.26c-4.7-0.61-7.03-0.38-7.03-0.38c-3.54-4.36-13.82-7.02-23.17-6.48c-6.17,0.36-14.64,1.19-19.46,5.52 c-3.08,2.77-4.19,8.96-0.27,13.17c-3.26,2.08-3.64,6.07-2.74,8.97c0.89,2.87,2.91,4.02,3.01,4.86c0.1,0.81,0.44,8.81,0.82,11.96 c0.43,3.59-1.39,7.01-2.56,10.43c-0.86,2.5-1.45,7.13-1.22,10.62c0.07,1-0.03,1.84,0.19,2.58c0.22,0.73,0.75,1.37,1.14,1.69 c7.91,6.45,24.66,10.61,28.2,12.7c3.54,2.08,21.02,14.15,32.26,16.03c11.24,1.87,25.7,1.47,38.6-6.65 C120.74,97.96,118.95,94.9,118.95,94.9z M25.04,18.62c14.97-0.98,20.68,2.04,22.54,3.99c0,0-5.29,1.07-7.07,4.49 c-0.78,1.49-1.75,3.18-1.69,4.87c-3.51-3.06-7.2-2.42-11.52-2.7c-5.83-0.38-12.48-2.16-12.31-5.72 C15.17,19.61,23,18.75,25.04,18.62z" fill="#784D30"/>
      <path d="M34.86,29.25c-1.08,3.29,0.16,6.85,1.4,10.09c1.31,3.43,2.62,6.87,3.92,10.3" fill="none"/>
      <path d="M93.94,96.39c0.89-0.61,1.76-1.31,2.27-2.25s0.62-2.19-0.01-3.06c-0.72-1-2.16-1.24-3.36-0.93 c-1.2,0.31-2.23,1.04-3.3,1.66c-1.39,0.8-4.83,2.12-7.95,2.98c-3.09,0.86-4.98,2.6-4.48,4.48c0.85,3.21,6.28,1.73,8.08,1.25 C88.19,99.72,91.36,98.16,93.94,96.39z" fill="#A06841"/>
      <path d="M23.66,65.37c1.63,2.37,1.34,6.02-0.93,7.78c-1.2,0.93-2.74,1.27-4.03,2.06 c-0.77,0.47-2.71,2.51-4.81,1.98c-1.19-0.3-1.7-1.74-1.92-2.94c-0.67-3.63,0.47-7.59,3.14-10.25 C17.54,61.57,21.97,62.91,23.66,65.37z" fill="#A06841"/>
      <path d="M123.63,100.16c0.75-2.26,0.26-4.77-0.46-6.98c-0.55-0.93-2.06-1.17-3.02-1.55 c-0.27-0.09-2.53-0.52-2.59-0.7c0.3,0.98,0.8,1.93,0.91,2.96c0.07,1.43-4.13,6.99-12.78,10.99c-21.95,10.14-35.57,5.95-39.03,5.37 c-10.91-1.99-21.99-9.38-29.43-14c-7.86-3.59-19.61-6.32-27.06-11.83C9.24,83.76,8.21,83.12,7.78,82c0,0-0.1-0.25-0.14-0.51 c-0.07-0.51-0.2-1.75-0.2-1.75c-1.56,0.96-3.39,2.4-3.37,4.43c0,0-0.07,6.98-0.07,6.98c-0.01,0.7,0.28,1.37,0.8,1.84 c1.12,1.03,3.1,2.28,4.55,3.15c0.86,0.51,1.81,0.32,2.02-0.72c0.08-0.39,0.18-0.78,0.3-1.17c0.41-1.49,1.4-0.52,2.45-0.09 c0.36,0.17,0.81,0.32,0.8,0.78c0,0,0,3.22,0,3.22c0,0.88,0.52,1.66,1.34,1.99c1.29,0.35,3.63,2.1,4.94,0.79 c0.43-0.96,0.27-2.27,0.98-3.08c0.53-0.32,1.9,0.39,2.41,0.58c0.79,0.3,0.18,3.16,0.15,3.53c-0.07,0.89,0.39,1.62,1.25,1.95 c0,0,2.74,1.04,2.74,1.04c0.58,0.22,1.75,0.22,2.18-0.33c0.53-0.87,0.36-2.04,0.86-2.92c0.61-0.84,2.11,0.31,2.76,0.64 c1.18,0.57,2.54,1.4,3.64,2.13c3.24,2.08,5.03,2.96,9.94,5.57c0.2,0.11,0.33,0.31,0.34,0.53l0.17,3.19c0.2,2.13,3,2.53,4.52,3.54 c0.58,0.29,1.69,0.41,2.11-0.21c0.37-0.69,0.4-1.53,0.79-2.23c0.39-0.83,1.34-0.6,2.03-0.34c2.83,0.72,1.8,2.37,1.85,4.55 c0.05,0.81,0.83,1.54,1.59,1.77c1.41,0.42,3.16,0.84,4.08,1.05c2.24,0.51,2.1-1.88,2.24-3.2c0.05-0.58,0.14-1.6,0.99-1.5 c0.77,0.09,1.54,0.17,2.32,0.24c0.32,0.03,0.57,0.28,0.59,0.6l0.15,2.85c0.06,1.12,0.98,2.02,2.09,2.05 c1.55,0.04,3.83,0.06,5.6,0.04c0.91,0.02,1.75-0.74,1.67-1.69c0.06-1.56-0.93-3.25,1.13-3.79c0.76-0.24,2.91-0.51,3.77-0.55 c0.75-0.03,0.85,0.54,0.96,1.66c0.08,0.76,0.07,1.65,0.63,2.16c0.4,0.37,1.01,0.39,1.55,0.31 C102.12,119.24,117.5,111.68,123.63,100.16z" fill="#E2A610"/>
    </g>
    <path d="M44.21,50.49 c2.66,3.84,19.02,0.28,24.34,2.77" fill="none" stroke="#C62828" stroke-width="3.0673" stroke-linecap="round" stroke-miterlimit="10"/>
    <path d="M48.82,60.71 c1.9,2.88,18.85-2.59,24.69-0.98" fill="none" stroke="#C62828" stroke-width="3.0673" stroke-linecap="round" stroke-miterlimit="10"/>
    <path d="M55.07,69.38 c2.35,2.72,15.96-4.61,23.69-3.14" fill="none" stroke="#C62828" stroke-width="3.0673" stroke-linecap="round" stroke-miterlimit="10"/>
    <path d="M62.31,76.5c1.73,3.3,15.38-5.46,22.96-2.24 c0.87,0.37,1.75,0.9,0.89,1.29c-6.12,2.77-14.23,9.37-17.18,7.27" fill="none" stroke="#C62828" stroke-width="3.0673" stroke-miterlimit="10"/>
    <path d="M67.32,82.23 c0.48-6.63,6.51-12.4,11.43-15.99" fill="none" stroke="#F44336" stroke-width="3.0673" stroke-linecap="round" stroke-miterlimit="10"/>
    <path d="M60.29,75.54 c0-5.74,10.26-14.36,13.22-15.81" fill="none" stroke="#F44336" stroke-width="3.0673" stroke-linecap="round" stroke-miterlimit="10"/>
    <path d="M53.02,68.19 c2.35-6.47,9.95-11.85,15.52-14.94" fill="none" stroke="#F44336" stroke-width="3.0673" stroke-linecap="round" stroke-miterlimit="10"/>
    <path d="M47.71,58.53 c3.72-5.59,11.69-9.35,17.43-11.19" fill="none" stroke="#F44336" stroke-width="3.0673" stroke-linecap="round" stroke-miterlimit="10"/>
    <path d="M44.47,47.9 c4.89-5.52,13.88-6.96,21.2-6.09" fill="none" stroke="#F44336" stroke-width="3.0673" stroke-linecap="round" stroke-miterlimit="10"/>
    <path d="M39.54,34.97c1.04,4.38,1.04,9.15,0.86,13.58c4.84-4.16,5.05-11.14,4.86-17.08 c-0.11-1.21,0.11-2.51,1.7-3.53c5.16-3.33,10.69-4.64,16.51-4.26c2.33,0.16,4,1.23,4,1.23c-1.15-2.25-3.5-3.91-7.69-4.26 c-5.59-0.46-12.14,0.05-16.93,3.23C38.84,26.56,37.59,30.66,39.54,34.97z" fill="#A06841"/>
    <g>
      <path d="M44.21,50.49l3.21,0.88c0.53,0.14,1.01-0.34,0.87-0.86l-1.19-4.46c-0.14-0.53-0.8-0.7-1.19-0.31 l-2.36,2.4l0,0c-0.37-1.33-1.74-2.11-3.07-1.74l-0.99,0.27c-1.14,0.31-1.81,1.5-1.5,2.64l0.84,3.03c0.31,1.14,1.5,1.81,2.64,1.5 l0.99-0.27C43.8,53.19,44.58,51.82,44.21,50.49L44.21,50.49z" fill="#78A3AC"/>
      <path d="M63.7,86.61l2.54,1.85c0.96,0.7,2.3,0.49,3-0.47l0.61-0.83c0.81-1.11,0.57-2.68-0.55-3.49 l3.06-1.31c0.5-0.21,0.58-0.89,0.14-1.22l-3.71-2.75c-0.44-0.33-1.07-0.05-1.12,0.49l-0.35,3.35l0,0 c-1.11-0.81-2.68-0.57-3.49,0.55l-0.61,0.83C62.53,84.57,62.74,85.91,63.7,86.61z" fill="#78A3AC"/>
      <path d="M55.98,79.25l2.2,2.25c0.83,0.85,2.19,0.87,3.04,0.04l0.74-0.72c0.99-0.96,1.01-2.54,0.04-3.53 l3.24-0.78c0.53-0.13,0.72-0.78,0.34-1.18L62.39,72c-0.38-0.4-1.04-0.23-1.19,0.3l-0.9,3.24l0,0c-0.96-0.99-2.54-1.01-3.53-0.04 l-0.74,0.72C55.17,77.04,55.16,78.4,55.98,79.25z" fill="#78A3AC"/>
      <path d="M48.8,70.21l1.75,2.62c0.66,0.99,1.99,1.25,2.98,0.59l0.86-0.57c1.15-0.77,1.45-2.32,0.69-3.46 l3.32-0.18c0.54-0.03,0.85-0.64,0.55-1.09l-2.53-3.86c-0.3-0.46-0.99-0.42-1.23,0.08l-1.48,3.02l0,0 c-0.77-1.15-2.32-1.45-3.46-0.69l-0.86,0.57C48.41,67.89,48.14,69.23,48.8,70.21z" fill="#78A3AC"/>
      <path d="M42.5,60.81l1.44,2.8c0.54,1.05,1.84,1.47,2.89,0.93l0.92-0.47c1.23-0.63,1.71-2.13,1.08-3.36 l3.32,0.2c0.54,0.03,0.92-0.54,0.67-1.02l-2.07-4.12c-0.25-0.49-0.93-0.53-1.23-0.06l-1.82,2.83l0,0 c-0.63-1.23-2.13-1.71-3.36-1.08l-0.92,0.47C42.37,58.46,41.96,59.76,42.5,60.81z" fill="#78A3AC"/>
    </g>
    <path d="M28.51,41.23c-7.76,0-17.44-2.68-18.91-6.11c-0.65-1.53,0.55-2.24,0.55-2.24 c4.18,3.44,11.04,5.37,18.87,5.28c0.84-0.01,1.54,0.63,1.57,1.46v0c0.04,0.87-0.65,1.59-1.52,1.6 C28.88,41.22,28.69,41.23,28.51,41.23z" fill="#4E342E"/>
    <path d="M28.14,53.46c-6.8,0-12.98-1.45-17.57-4.05c0,0,0.19-2.03-0.46-2.74 c-0.95-1.05-1.61-2.61-1.61-2.61c4,4.05,11.35,6.38,19.83,6.33c0.84,0,1.53,0.64,1.56,1.47v0c0.03,0.86-0.65,1.59-1.5,1.59 C28.3,53.46,28.22,53.46,28.14,53.46z" fill="#4E342E"/>
    <path d="M23.87,18.73c-1.68,0.13-3.58,0.55-5.16,1.14c-1.4,0.52-3.06,1.33-3.52,2.74 c-0.55,1.7,0.45,3.02,1.63,3.92c1.66,1.42,5.86,1.54,5.14,4.24c-1.02,3.81-9.09,1.56-11.03-0.31c-6.01-5.36-1.5-11.74,4.85-13.85 c3.03-1.01,6.41-1.78,9.17-1.73c0.67,0.01,2.87,0.21,2.67,1.91C27.45,18.27,26.05,18.56,23.87,18.73z" fill="#A06841"/>
    <path d="M12.43,39.42c1.52,0.85,4.87,1.28,5.07,3.01c0.31,2.61-4.26,2.42-6.02,1.53 c-1.34-0.47-2.87-1.72-3.26-3.53C7.75,38.29,9.16,37.59,12.43,39.42z" fill="#A06841"/>
  </g>
</svg>
